public/images/home/why-us/process.svg

<svg width="36" height="37" viewBox="0 0 36 37" fill="none" xmlns="http://www.w3.org/2000/svg">
<path d="M15.8906 25.4993H14.4858C13.9485 24.3744 14.0155 24.5237 13.3209 23.5204L14.0257 22.3011C14.3172 21.7967 14.1443 21.1511 13.6398 20.8598L11.8126 19.8051C11.3082 19.514 10.6633 19.6867 10.3721 20.1911L9.67683 21.3946C9.29433 21.3607 8.84278 21.3122 8.50781 21.3122C8.17284 21.3122 7.7213 21.3606 7.3388 21.3946L6.64341 20.1907C6.35217 19.6866 5.70755 19.5138 5.20312 19.8046L3.37542 20.859C2.87051 21.1501 2.69754 21.7959 2.98934 22.3004L3.69471 23.5205C2.99166 24.5362 3.06014 24.3893 2.52984 25.4993H1.05469C0.472219 25.4993 0 26.0022 0 26.5847V28.694C0 29.2765 0.472219 29.704 1.05469 29.704H2.52984C3.0671 30.8289 3.00016 30.7548 3.69471 31.7582L2.98997 32.9775C2.69838 33.482 2.87128 34.1275 3.37584 34.4189L5.20298 35.4736C5.70741 35.7647 6.35231 35.5919 6.64355 35.0876L7.3388 33.884C7.7213 33.918 8.17284 33.9664 8.50781 33.9664C8.84278 33.9664 9.29433 33.918 9.67683 33.884L10.3722 35.0879C10.6635 35.592 11.3081 35.7649 11.8125 35.474L13.6402 34.4197C14.1451 34.1286 14.3181 33.4827 14.0263 32.9783L13.3209 31.7581C14.024 30.7425 13.9555 30.814 14.4858 29.7039H15.8906C16.4731 29.7039 16.9453 29.2764 16.9453 28.694V26.5846C16.9453 26.0022 16.4731 25.4993 15.8906 25.4993ZM8.50781 30.8033C6.76308 30.8033 5.34375 29.3839 5.34375 27.6392C5.34375 25.8945 6.76308 24.4752 8.50781 24.4752C10.2525 24.4752 11.6719 25.8945 11.6719 27.6392C11.6719 29.384 10.2525 30.8033 8.50781 30.8033Z" fill="#434343"/>
<path d="M34.9453 25.4993H33.4702C32.9329 24.3744 32.9998 24.5237 32.3053 23.5204L33.01 22.3011C33.3016 21.7967 33.1287 21.1511 32.6242 20.8598L30.797 19.8051C30.2926 19.514 29.6477 19.6867 29.3565 20.1911L28.6612 21.3946C28.2787 21.3607 27.8272 21.3122 27.4922 21.3122C27.1572 21.3122 26.7057 21.3606 26.3232 21.3946L25.6278 20.1907C25.3365 19.6866 24.6919 19.5138 24.1875 19.8046L22.3598 20.859C21.8549 21.1501 21.6819 21.7959 21.9737 22.3004L22.6791 23.5205C21.976 24.5362 22.0445 24.3893 21.5142 25.4993H20.1094C19.5269 25.4993 19.0547 26.0022 19.0547 26.5847V28.694C19.0547 29.2765 19.5269 29.704 20.1094 29.704H21.5142C22.0515 30.8289 21.9845 30.7548 22.6791 31.7582L21.9743 32.9775C21.6828 33.482 21.8557 34.1275 22.3602 34.4189L24.1874 35.4736C24.6918 35.7647 25.3367 35.5919 25.6279 35.0876L26.3232 33.884C26.7057 33.918 27.1572 33.9664 27.4922 33.9664C27.8272 33.9664 28.2787 33.918 28.6612 33.884L29.3566 35.0879C29.6478 35.592 30.2925 35.7649 30.7969 35.474L32.6246 34.4197C33.1295 34.1286 33.3025 33.4827 33.0107 32.9783L32.3053 31.7581C33.0083 30.7425 32.9399 30.814 33.4702 29.7039H34.9453C35.5278 29.7039 36 29.2764 36 28.694V26.5846C36 26.0022 35.5278 25.4993 34.9453 25.4993ZM27.4922 30.8033C25.7475 30.8033 24.3281 29.3839 24.3281 27.6392C24.3281 25.8945 25.7475 24.4752 27.4922 24.4752C29.2369 24.4752 30.6562 25.8945 30.6562 27.6392C30.6562 29.384 29.2369 30.8033 27.4922 30.8033Z" fill="#FF6B00"/>
<path d="M15.8906 7.7012H14.4858C13.9485 6.57634 14.0155 6.72568 13.3209 5.72239L14.0257 4.50303C14.3172 3.99861 14.1443 3.35307 13.6398 3.0617L11.8126 2.00701C11.3082 1.71592 10.6633 1.88868 10.3721 2.39303L9.67683 3.59657C9.29433 3.5626 8.84278 3.51416 8.50781 3.51416C8.17284 3.51416 7.7213 3.56253 7.3388 3.59657L6.64341 2.3926C6.35217 1.88846 5.70755 1.71564 5.20312 2.00652L3.37549 3.06071C2.87058 3.35181 2.69761 3.99763 2.98941 4.50212L3.69478 5.72225C2.99166 6.73806 3.06021 6.59118 2.52984 7.7012H1.05469C0.472219 7.7012 0 8.20407 0 8.78654V10.8959C0 11.4783 0.472219 11.9199 1.05469 11.9199H2.52984C3.0671 13.0448 3.00016 12.9567 3.69471 13.9601L2.98997 15.1794C2.69838 15.6838 2.87128 16.3294 3.37584 16.6208L5.20298 17.6754C5.70741 17.9665 6.35231 17.7938 6.64355 17.2894L7.3388 16.0859C7.7213 16.1199 8.17284 16.1683 8.50781 16.1683C8.84278 16.1683 9.29433 16.1199 9.67683 16.0859L10.3722 17.2898C10.6635 17.7939 11.3081 17.9668 11.8125 17.6759L13.6402 16.6215C14.1451 16.3304 14.3181 15.6846 14.0263 15.1801L13.3209 13.96C14.024 12.9443 13.9555 13.03 14.4858 11.9199H15.8906C16.4731 11.9199 16.9453 11.4782 16.9453 10.8958V8.78647C16.9453 8.204 16.4731 7.7012 15.8906 7.7012ZM8.50781 13.0052C6.76308 13.0052 5.34375 11.5859 5.34375 9.84116C5.34375 8.09642 6.76308 6.6771 8.50781 6.6771C10.2525 6.6771 11.6719 8.09642 11.6719 9.84116C11.6719 11.586 10.2525 13.0052 8.50781 13.0052Z" fill="#FF6B00"/>
<path d="M34.9453 7.70125H33.4702C32.9329 6.57639 32.9998 6.72573 32.3053 5.72245L33.01 4.50309C33.3016 3.99866 33.1287 3.35313 32.6242 3.06175L30.797 2.00706C30.2926 1.71597 29.6477 1.88873 29.3565 2.39308L28.6612 3.59662C28.2787 3.56266 27.8272 3.51421 27.4922 3.51421C27.1572 3.51421 26.7057 3.56259 26.3232 3.59662L25.6278 2.39273C25.3365 1.88859 24.6919 1.71576 24.1875 2.00664L22.3598 3.06098C21.8549 3.35207 21.6819 3.99789 21.9737 4.50238L22.6791 5.72252C21.976 6.73811 22.0446 6.59123 21.5142 7.70125H20.1094C19.5269 7.70125 19.0547 8.20412 19.0547 8.78659V10.896C19.0547 11.4784 19.5269 11.92 20.1094 11.92H21.5142C22.0515 13.0449 21.9845 12.9568 22.6791 13.9601L21.9743 15.1795C21.6828 15.6839 21.8557 16.3294 22.3602 16.6208L24.1874 17.6755C24.6918 17.9666 25.3367 17.7938 25.6279 17.2895L26.3232 16.0859C26.7057 16.1199 27.1572 16.1684 27.4922 16.1684C27.8272 16.1684 28.2787 16.12 28.6612 16.0859L29.3566 17.2898C29.6478 17.794 30.2925 17.9668 30.7969 17.6759L32.6246 16.6216C33.1295 16.3305 33.3025 15.6847 33.0107 15.1802L32.3053 13.96C33.0083 12.9444 32.9399 13.03 33.4702 11.9199H34.9453C35.5278 11.9199 36 11.4783 36 10.8959V8.78652C36 8.20405 35.5278 7.70125 34.9453 7.70125ZM27.4922 13.0053C25.7475 13.0053 24.3281 11.5859 24.3281 9.84121C24.3281 8.09648 25.7475 6.67715 27.4922 6.67715C29.2369 6.67715 30.6562 8.09648 30.6562 9.84121C30.6562 11.586 29.2369 13.0053 27.4922 13.0053Z" fill="#FF6B00"/>
</svg>

<svg xmlns="http://www.w3.org/2000/svg" width="36" height="37" fill="none" xmlns:v="https://vecta.io/nano"><path d="M15.891 25.499h-1.405c-.537-1.125-.47-.976-1.165-1.979l.705-1.219c.291-.504.119-1.15-.386-1.441l-1.827-1.055c-.504-.291-1.149-.118-1.44.386l-.695 1.204-1.169-.082c-.335 0-.787.048-1.169.082l-.695-1.204c-.291-.504-.936-.677-1.44-.386l-1.828 1.054c-.505.291-.678.937-.386 1.441l.705 1.22c-.703 1.016-.635.869-1.165 1.979H1.055c-.582 0-1.055.503-1.055 1.085v2.109c0 .582.472 1.01 1.055 1.01H2.53c.537 1.125.47 1.051 1.165 2.054l-.705 1.219c-.292.505-.119 1.15.386 1.441l1.827 1.055c.504.291 1.149.118 1.441-.386l.695-1.204 1.169.082c.335 0 .787-.048 1.169-.082l.695 1.204c.291.504.936.677 1.44.386l1.828-1.054c.505-.291.678-.937.386-1.441l-.705-1.22c.703-1.016.635-.944 1.165-2.054h1.405c.582 0 1.055-.428 1.055-1.01v-2.109c0-.582-.472-1.085-1.055-1.085zm-7.383 5.304a3.17 3.17 0 0 1-3.164-3.164 3.17 3.17 0 0 1 3.164-3.164 3.17 3.17 0 0 1 3.164 3.164 3.17 3.17 0 0 1-3.164 3.164z" fill="#434343"/><path d="M34.945 25.499H33.47c-.537-1.125-.47-.976-1.165-1.979l.705-1.219c.292-.504.119-1.15-.386-1.441l-1.827-1.055c-.504-.291-1.149-.118-1.44.386l-.695 1.204-1.169-.082c-.335 0-.787.048-1.169.082l-.695-1.204c-.291-.504-.936-.677-1.44-.386l-1.828 1.054c-.505.291-.678.937-.386 1.441l.705 1.22c-.703 1.016-.635.869-1.165 1.979H20.11c-.582 0-1.055.503-1.055 1.085v2.109c0 .582.472 1.01 1.055 1.01h1.405c.537 1.125.47 1.051 1.165 2.054l-.705 1.219c-.291.505-.119 1.15.386 1.441l1.827 1.055c.504.291 1.149.118 1.441-.386l.695-1.204 1.169.082c.335 0 .787-.048 1.169-.082l.695 1.204c.291.504.936.677 1.44.386l1.828-1.054c.505-.291.678-.937.386-1.441l-.705-1.22c.703-1.016.635-.944 1.165-2.054h1.475c.582 0 1.055-.428 1.055-1.01v-2.109c0-.582-.472-1.085-1.055-1.085zm-7.453 5.304a3.17 3.17 0 0 1-3.164-3.164 3.17 3.17 0 0 1 3.164-3.164 3.17 3.17 0 0 1 3.164 3.164 3.17 3.17 0 0 1-3.164 3.164zM15.891 7.701h-1.405c-.537-1.125-.47-.976-1.165-1.979l.705-1.219c.291-.504.119-1.15-.386-1.441l-1.827-1.055c-.504-.291-1.149-.118-1.44.386l-.695 1.204-1.169-.082c-.335 0-.787.048-1.169.082l-.695-1.204c-.291-.504-.936-.677-1.44-.386l-1.83 1.054c-.505.291-.678.937-.386 1.441l.705 1.22c-.703 1.016-.635.869-1.165 1.979H1.055C.472 7.701 0 8.204 0 8.787v2.109c0 .582.472 1.024 1.055 1.024H2.53c.537 1.125.47 1.037 1.165 2.04l-.705 1.219c-.292.504-.119 1.15.386 1.441l1.827 1.055c.504.291 1.149.118 1.441-.386l.695-1.204 1.169.082c.335 0 .787-.048 1.169-.082l.695 1.204c.291.504.936.677 1.44.386l1.828-1.054c.505-.291.678-.937.386-1.441l-.705-1.22c.703-1.016.635-.93 1.165-2.04h1.405c.582 0 1.055-.442 1.055-1.024v-2.11c0-.582-.472-1.085-1.055-1.085zm-7.383 5.304a3.17 3.17 0 0 1-3.164-3.164 3.17 3.17 0 0 1 3.164-3.164 3.17 3.17 0 0 1 3.164 3.164 3.17 3.17 0 0 1-3.164 3.164zm26.437-5.304H33.47c-.537-1.125-.47-.976-1.165-1.979l.705-1.219c.292-.504.119-1.15-.386-1.441l-1.827-1.055c-.504-.291-1.149-.118-1.44.386l-.695 1.204-1.169-.082c-.335 0-.787.048-1.169.082l-.695-1.204c-.291-.504-.936-.677-1.44-.386L22.36 3.061c-.505.291-.678.937-.386 1.441l.705 1.22c-.703 1.016-.634.869-1.165 1.979h-1.405c-.582 0-1.055.503-1.055 1.085v2.109c0 .582.472 1.024 1.055 1.024h1.405c.537 1.125.47 1.037 1.165 2.04l-.705 1.219c-.291.504-.119 1.15.386 1.441l1.827 1.055c.504.291 1.149.118 1.441-.386l.695-1.204 1.169.082c.335 0 .787-.048 1.169-.082l.695 1.204c.291.504.936.677 1.44.386l1.828-1.054c.505-.291.678-.937.386-1.441l-.705-1.22c.703-1.016.635-.93 1.165-2.04h1.475c.582 0 1.055-.442 1.055-1.024V8.787c0-.582-.472-1.085-1.055-1.085zm-7.453 5.304a3.17 3.17 0 0 1-3.164-3.164 3.17 3.17 0 0 1 3.164-3.164 3.17 3.17 0 0 1 3.164 3.164 3.17 3.17 0 0 1-3.164 3.164z" fill="#ff6b00"/></svg>
